X:1
T:Rolling Down to Old Maui
M:4/4
L:1/4
K:Ab
 C C| F F =E C/2C/2| A A Gc/2-B/2| A FG/2-F/2 E| F3 C/2C/2| F F/2F/2 =E C/2C/2|\
 A A Gc/2-B/2| A F G E| F3A/2-B/2| c c c B/2A/2| B B B G/2G/2| A A G F|\
 G2- c C/2C/2| F F/2F/2 =E C/2C/2| A A G c/2B/2| A F G G| F3 A/2B/2|\
 c3/2 c/2 c A| B3/2 B/2 B c/2B/2| A A A F| G2- c C| F F =E C/2C/2|\
 A A G c/2B/2| A FG/2-F/2 E| F3||
